static/images/ssg-mark-white.svg

<svg height="39" viewBox="0 0 56 39" width="56" xmlns="http://www.w3.org/2000/svg"><path d="m42.5826471.17605488c-7.962227-.04708537-13.1764286 5.83858536-13.3643277 13.84309752-1.1508825-.5650243-2.4426891-.9887926-3.7579833-1.4125609-4.2981933-1.412561-5.6604621-2.5190671-5.6604621-4.99104881.0234873-3.20180488 2.9594118-4.52019512 5.7778991-4.52019512 1.9494538.02354267 3.8519328.77690853 4.9088655 2.51906707l2.6540756-2.28364024c-1.9729411-2.3542683-4.5095797-3.20180489-7.5159664-3.22534757-4.7209663-.02354268-9.1835714 2.54260976-9.2305461 7.74554269-.0234875 4.49665238 2.8654622 6.19172568 6.6704201 7.48657318 4.7914286 1.6244451 7.0462186 2.2130121 7.0227311 5.5560732-.0234874 3.0840914-3.1473109 4.6849939-5.8953361 4.6614512-2.3017647-.0235428-4.580042-1.0594207-5.7074369-3.0134635-.1878993-.3060548-.5167227-.8946219-.6576471-1.3654755.0234873-.1883415.0234873-.3766829.0234873-.5650245 0-5.344189-3.8754201-6.75675-8.05617641-8.0986829-4.29819327-1.4125609-5.66046218-2.51906704-5.66046218-4.99104875.0234874-3.20180488 2.95941177-4.52019512 5.77789916-4.52019512 1.94945383.02354269 3.85193283.77690853 4.90886563 2.51906707l2.6540755-2.28364024c-1.9729412-2.35426829-4.5095798-3.20180488-7.51596634-3.22550808-4.74445378-.02338217-9.20705882 2.54277028-9.25403361 7.7457032-.0234874 4.49665242 2.86546219 6.19172552 6.67042016 7.48657312 4.79142859 1.6244452 7.04621849 2.2130122 7.02273109 5.5560733-.0234873 3.0840914-3.1473109 4.6849938-5.89533613 4.6614512-2.3252521-.0235428-4.60352941-1.0594207-5.73092437-3.0605488l-2.7715126 2.2365548c1.80852941 2.7309512 5.1672269 3.7668293 8.29105042 3.7903719 3.10033618.0235428 6.08323538-.96525 7.86827728-3.0840914 1.8789917 2.2600976 4.9323529 3.1547195 7.8213026 3.1782623 3.5465966.0235426 6.9757562-1.2948476 8.5728991-4.0964269 2.25479 2.6132377 5.59 4.1905976 9.8647059 4.2141403 3.5700841.0235426 6.8818067-1.5302745 9.3949579-5.1558476h.1174371v.3295976c-.0939497 6.9215487-4.8618908 10.9944328-10.2170168 10.9473474-4.039832-.0235426-7.1401681-2.3071829-8.6433614-4.7320791l-2.9594117 2.4248962c3.1473109 4.0728842 7.1166806 5.7679574 11.5792856 5.7918286 7.609916.0467569 13.8810504-4.9678346 14.0454622-14.2907371l.0705482-9.4641586c.0234014-8.14576819-4.7680272-14.26686576-13.2234893-14.31395112zm9.3950865 14.29040852c-.0471033 6.0740123-4.3922714 10.3823232-9.5360109 10.3588766-6.2946218-.0471814-9.4419328-4.4025778-9.394958-10.47659.0469748-6.07401219 3.5465967-10.40586586 9.5358824-10.35878048 6.2241597.04708536 9.4184453 4.4024817 9.3950865 10.47649388z" fill="#fff" transform="translate(.02 .2)"/></svg>

<?xml version="1.0" encoding="UTF-8"?>
<svg width="56px" height="39px" viewBox="0 0 56 39" version="1.1" xmlns="http://www.w3.org/2000/svg" xmlns:xlink="http://www.w3.org/1999/xlink">
    <!-- Generator: Sketch 62 (91390) - https://sketch.com -->
    <title>Shape</title>
    <desc>Created with Sketch.</desc>
    <g id="UI-Design-(Teal)" stroke="none" stroke-width="1" fill="none" fill-rule="evenodd">
        <g id="iPhone-11-Pro---mobile-menu-open" transform="translate(-13.000000, -15.000000)" fill="#FFFFFF" fill-rule="nonzero">
            <g id="SSG-mark-black-on-white" transform="translate(13.000000, 15.000000)">
                <g id="ssg-mark-white" transform="translate(0.020000, 0.200000)">
                    <path d="M42.5826471,0.176054878 C34.6204201,0.128969512 29.4062185,6.01464024 29.2183194,14.0191524 C28.0674369,13.4541281 26.7756303,13.0303598 25.4603361,12.6065915 C21.1621428,11.1940305 19.799874,10.0875244 19.799874,7.61554269 C19.8233613,4.41373781 22.7592858,3.09534757 25.5777731,3.09534757 C27.5272269,3.11889024 29.4297059,3.8722561 30.4866386,5.61441464 L33.1407142,3.3307744 C31.1677731,0.976506098 28.6311345,0.128969512 25.6247478,0.105426829 C20.9037815,0.0818841464 16.4411764,2.64803659 16.3942017,7.85096952 C16.3707142,12.3476219 19.2596639,14.0426952 23.0646218,15.3375427 C27.8560504,16.9619878 30.1108404,17.5505548 30.0873529,20.8936159 C30.0638655,23.9777073 26.940042,25.5786098 24.1920168,25.5550671 C21.8902521,25.5315243 19.6119748,24.4956464 18.4845799,22.5416036 C18.2966806,22.2355488 17.9678572,21.6469817 17.8269328,21.1761281 C17.8504201,20.9877866 17.8504201,20.7994452 17.8504201,20.6111036 C17.8504201,15.2669146 13.975,13.8543536 9.79424369,12.5124207 C5.49605042,11.0998598 4.13378151,9.99335366 4.13378151,7.52137195 C4.15726891,4.31956707 7.09319328,3.00117683 9.91168067,3.00117683 C11.8611345,3.02471952 13.7636135,3.77808536 14.8205463,5.5202439 L17.4746218,3.23660366 C15.5016806,0.882335366 12.965042,0.0347987805 9.95865546,0.0110955837 C5.21420168,-0.0122865854 0.751596639,2.55386586 0.704621849,7.75679878 C0.681134454,12.2534512 3.57008404,13.9485243 7.37504201,15.2433719 C12.1664706,16.8678171 14.4212605,17.4563841 14.3977731,20.7994452 C14.3742858,23.8835366 11.2504622,25.484439 8.50243697,25.4608964 C6.17718487,25.4373536 3.89890756,24.4014757 2.7715126,22.4003476 L-7.38964446e-15,24.6369024 C1.80852941,27.3678536 5.1672269,28.4037317 8.29105042,28.4272743 C11.3913866,28.4508171 14.3742858,27.4620243 16.1593277,25.3431829 C18.0383194,27.6032805 21.0916806,28.4979024 23.9806303,28.5214452 C27.5272269,28.5449878 30.9563865,27.2265976 32.5535294,24.4250183 C34.8083194,27.038256 38.1435294,28.6156159 42.4182353,28.6391586 C45.9883194,28.6627012 49.300042,27.1088841 51.8131932,23.483311 L51.9306303,23.483311 L51.9306303,23.8129086 C51.8366806,30.7344573 47.0687395,34.8073414 41.7136135,34.760256 C37.6737815,34.7367134 34.5734454,32.4530731 33.0702521,30.0281769 L30.1108404,32.4530731 C33.2581513,36.5259573 37.227521,38.2210305 41.690126,38.2449017 C49.300042,38.2916586 55.5711764,33.2770671 55.7355882,23.9541646 L55.8061364,14.490006 C55.8295378,6.34423781 51.0381092,0.223140243 42.5826471,0.176054878 Z M51.9777336,14.4664634 C51.9306303,20.5404757 47.5854622,24.8487866 42.4417227,24.82534 C36.1471009,24.7781586 32.9997899,20.4227622 33.0467647,14.34875 C33.0937395,8.27473781 36.5933614,3.94288414 42.5826471,3.98996952 C48.8068068,4.03705488 52.0010924,8.39245122 51.9777336,14.4664634 Z" id="Shape"></path>
                </g>
            </g>
        </g>
    </g>
</svg>
